X:19
T:John O'Connor
T:Planxty Connor
R:carolan
C:Turlough O'Carolan (1670-1738)
H:First part cf. Padraig O'Keeffe's, slide#44
Z:id:hn-carolan-19
M:6/8
L:1/8
K:G
D | G2G FED | E2F G2A | B2G c2A | BAG cBA |
Bcd EGE | FGA DED | GFE DB,D | G3 G2 :|
|: B | ded def | g3 g3 | cdc cBc | e3 e3 |
dcB cBA | Bcd D2D | EFG AFD | G3 G2 :|
|: A | BGE EGE | AFD DFD | EGE FAG | F3 D2c |
Bcd dBG | cde ecA | GFE AFD | G3 G2 :|
<end>
<start>
